packages/svg/multimeter.svg

<svg width="24" height="24" viewBox="0 0 24 24" fill="none" xmlns="http://www.w3.org/2000/svg">
<path d="M9.15639 15.2171C8.81058 15.3978 8.41723 15.5 8 15.5C6.61929 15.5 5.5 14.3807 5.5 13C5.5 12.5828 5.60221 12.1894 5.78295 11.8436L9.15639 15.2171Z"/>
<path d="M10.2171 14.1564L6.84361 10.7829C7.18942 10.6022 7.58277 10.5 8 10.5C9.38071 10.5 10.5 11.6193 10.5 13C10.5 13.4172 10.3978 13.8106 10.2171 14.1564Z"/>
<path fill-rule="evenodd" clip-rule="evenodd" d="M4 2H12C12.5304 2 13.0391 2.21071 13.4142 2.58579C13.7893 2.96086 14 3.46957 14 4V20C14 20.5304 13.7893 21.0391 13.4142 21.4142C13.0391 21.7893 12.5304 22 12 22H4C3.46957 22 2.96086 21.7893 2.58579 21.4142C2.21071 21.0391 2 20.5304 2 20V4C2 3.46957 2.21071 2.96086 2.58579 2.58579C2.96086 2.21071 3.46957 2 4 2ZM12 7V4H4V7H12ZM4.99995 20C5.55224 20 5.99995 19.5523 5.99995 19C5.99995 18.4477 5.55224 18 4.99995 18C4.44767 18 3.99995 18.4477 3.99995 19C3.99995 19.5523 4.44767 20 4.99995 20ZM8.99995 19C8.99995 19.5523 8.55224 20 7.99995 20C7.44767 20 6.99995 19.5523 6.99995 19C6.99995 18.4477 7.44767 18 7.99995 18C8.55224 18 8.99995 18.4477 8.99995 19ZM12 19C12 19.5523 11.5522 20 11 20C10.4477 20 9.99995 19.5523 9.99995 19C9.99995 18.4477 10.4477 18 11 18C11.5522 18 12 18.4477 12 19ZM12 13C12 15.2091 10.2091 17 8 17C5.79086 17 4 15.2091 4 13C4 10.7909 5.79086 9 8 9C10.2091 9 12 10.7909 12 13Z"/>
<path d="M18 6H19V7H18V20H16V7H15V6H16L17 2L18 6Z"/>
<path d="M22 8H21L20 4L19 8V22H21V9H22V8Z"/>
</svg>

<svg id="a" xmlns="http://www.w3.org/2000/svg" width="24" height="24" viewBox="0 0 24 24"><path d="m5.78,11.84l3.38,3.38c-.35.18-.74.28-1.16.28-1.38,0-2.5-1.12-2.5-2.5,0-.42.1-.81.28-1.16Zm2.22-1.34c-.42,0-.81.1-1.16.28l3.38,3.38c.18-.35.28-.74.28-1.16,0-1.38-1.12-2.5-2.5-2.5Zm5.41-7.91c.38.37.59.88.59,1.41v16c0,.53-.21,1.04-.59,1.41-.37.38-.88.59-1.41.59H4c-.53,0-1.04-.21-1.41-.59-.38-.37-.59-.88-.59-1.41V4c0-.53.21-1.04.59-1.41.37-.38.88-.59,1.41-.59h8c.53,0,1.04.21,1.41.59Zm-7.41,16.41c0-.55-.45-1-1-1s-1,.45-1,1,.45,1,1,1,1-.45,1-1Zm3,0c0-.55-.45-1-1-1s-1,.45-1,1,.45,1,1,1,1-.45,1-1Zm3,0c0-.55-.45-1-1-1s-1,.45-1,1,.45,1,1,1,1-.45,1-1Zm0-6c0-2.21-1.79-4-4-4s-4,1.79-4,4,1.79,4,4,4,4-1.79,4-4Zm0-9H4v3h8v-3Zm7,2h-1l-1-4-1,4h-1v1h1v13h2V7h1v-1Zm2,2l-1-4-1,4v14h2v-13h1v-1h-1Z"/></svg>
